X: 096
T: Stonehill Fair (jig)
N: 190216
C: BB
R: jig
Q: 1/8=340
M: 6/8
L: 1/8
K: D
E|"Bm"FBB dBB | "D"afd "A"cBc | "Bm"FBB dcd | "D"fdc "Bm"B2 A |
"Bm"FBB dBB|"D"afd "A"cBA | "D"FAd "G"BGB | "A7"AGE "D"D2 :|
A|"Bm"Bff "F#m"cff | "D"dfa "Bm"baf | "D"d2 f "Em"ede | "D"fdc "Bm"B2 A |
"Bm"Bff "F#m"cff | "D"dfa afa | "G"b2 f "D"agf |"A"edc "D"d2 :|
%%%%%%%%%%%%%%%%%%%%%%%%%%%%%%%%%%%%%%%%%%%
